!! 00000] TT[WS
!!!OTL: Jiefu huan xiaoyi
!!!ARE: Asia, China, Shanxi Xingxian
!! Ethnic Group: Han
!! WII, 76 (1)
!!!SCT: J0512
!!!YEM: Copyright 1995, estate of Helmut Schaffrath.
**kern
*ICvox
*Ivox
*M2/4
*k[f#c#g#]
*A:
{4r
4ff#
=1
4ee
8ee
8cc#
=2
4ff#
8ee
8ff#
=3
2ee
=4
4r
4ff#
=5
4ee
8ee
8cc#
=6
8ee
4.b}
=7
{4r
4dd
=8
4ee
8ee
8ff#
=9
4ee
8ee
8cc#
=10
2b
=11
4r
4dd
=12
4.ee
16b
16a
=13
8b
4.e}
==
!!!AGN: Xiaodiao. Maimai, Qingge
!!!ONB: ESAC (Essen Associative Code) Database: CHINA
!!!AMT: simple duple
!!!AIN: vox
!!!EED: Helmut Schaffrath
!!!EEV: 1.0
*-
